X:1
T:Olaf Trygvason
T:Olaf Trygvason
T:Den norske Studenter-Sangforening tilegnet
T:F.A. Reissiger
T:Bjørnstjerne Bjørnson
C:F.A. Reissiger
Z:Bjørnstjerne Bjørnson
%%score [ 1 2 3 4 ]
L:1/8
Q:1/4=94
M:4/4
K:Ab
V:1 treble-8 nm="T1"
V:2 treble-8 nm="T2"
V:3 bass nm="B1"
V:4 bass nm="B2"
V:1
!f!"^Moderato" c3 B | A2 G3/2 F/ G2 C2 | F4 A3 B | c2 B3/2 A/ f2 d2 | c4 c2 B2 | A2 A4 B2 | %6
w: Bre- de|Sejl o- ver Nord- sjø|går; højt på|Skan- sen i Morg- nen|står Er- ling|Skjalg- son fra|
 G2 F4 z2 | z8 | z2!p! f3/2!<(! f/ f2 f2!<)! |!>(! _g6 f2!>)! | .e2 .d2 z2!pp! !>!d2- | %11
w: So- le,||spej- der o- ver|Hav mod|Dan- mark: "Kom-|
 d3/2 d/ d d!<(! d2 d2!<)! |!p!!>(! c3/2 =e/!>)! !fermata!e2 ||!mf! c3 B | A2 G3/2 F/ G2 C2 | %15
w: * mer ik- ke O- laf|Tryg- va- son?"|Seks og|fem- ti de Dra- ger|
 F4 A2!<(! A B | c2!<)! z!f! A f2 d2 | c2 c4!>(! B3/2 B/!>)! | A2!mf! z2!<(! !>!A4!<)! | %19
w: lå, Sej- le- ne|faldt, mod Dan- mark|så Sol- brænd- te|Mænd, da|
 !>!d2 !>!c2 z4 | z2 z!mf! f =e3/2 d/ c B | !>!A F!<(! d3/2 d/ d!<)! d"^poco ritenuto" d d | %22
w: steg det:|"Hvor bli- ver Or- men|Lan- ge? Kom- mer ik- ke O- laf|
!f! f3/2 =e/ !fermata!e2 ||!mf!"^a tempo" c3 B | A2 G3/2 F/ G2 C2 | F4 A3!<(! B | %26
w: Tryg- va- son?"|Men da|Sol i det an- det|Gry steg af|
 c2!<)! B3/2 A/!>(! f2 d2 | c2!>)! z2!<(! !>!c2 !>!c !>!c!<)! | !>!f6 !>!f2 | %29
w: Hav u- den Mast mod|Sky, Blev det som|Storm at|
!>(! !>!=e2 !>!c!>)! z z2 z2 | z2 z!f! c B A!<(! G A!<)! | !>!f !>!f z!mf! f =e!<(! f e f!<)! | %32
w: hø- re:|"Hvor bli- ver Or- men|Lan- ge? Hvor bli- ver Or- men|
!>(! a g!>)! z f =e!<(! f e f!<)! | !>!a !>!g z2!ff!"^poco accellerando" !>!b2 !>!a2 | %34
w: Lan- ge? Hvor bli- ver Or- men|Lan- ge? Kom- mer|
 !>!_g2 !>!f2 !>!f2 !>!f2 |"^ritenuto" !>!=e3/2 g/ g2 ||!pp!"^a tempo" c3 B | A2 G3/2 F/ G2 C2 | %38
w: ik- ke O- laf|Tryg- va- son?"|Stil- le,|stil- le i sam- me|
 F4 .A2 .B2 | .c2 z2 z2 E3/2 E/ |!<(! E4 =E4!<)! |!>(! F4!>)! !>!A4- | %42
w: Stund Al- le|stod; ti fra|Ha- vets|Bund skvul-|
 A2!<(! B c!<)! !>!d2!>(! c2!>)! | =B4 c2 z2 | z2!p! !>!A2-!>(! A3/2 G/!>)! F2 | %45
w: * ped som Suk om|Flå- den:|"Ta- * gen er|
!>(! =E2 F2!>)!!>(! E2 F2!>)! | z2!p! !>!A2-!>(! A3/2 G/!>)! F2 | =E2 F2!p!!<(! A4!<)! | %48
w: Or- men Lan- ge,|Fal- * den er|O- laf Tryg-|
 !fermata!A3/2"^ritenuto"!>(! G/!>)!!pp! !fermata!G2 || c3 B | A2 G3/2 F/ G2 C2 | F4 A3!<(! B | %52
w: * va- son."|Si- den|ef- ter i hun- dred|År nor- ske|
 c2!<)! B3/2 A/!>(! f2 d2!>)! | c4 !>!A4- | A2!<(! B c!<)! d2!>(! c2!>)! | =B4 c2 z2 | %56
w: Ski- be til Føl- ge|får, helst|_ dog i Må- ne-|næt- ter|
 z2!pp! !>!A2-!>(! A3/2 G/!>)! F2 |!>(! =E2!>)! F2!>(! E2!>)! F2 | %58
w: "Ta- * gen er|Or- men Lan- ge,|
 z2!pp! !>!A2-!>(! A3/2 G/!>)! F2 | =E2 F2!<(! z4!<)! |!p!!>(! c4-!>)!"^morendo" c7/2 c/ | %61
w: Fal- * den er|O- laf|Tryg- * va-|
 !fermata!c4 |] %62
w: son."|
V:2
!f! c3 B | A2 G3/2 F/ G2 C2 | F4 A3 B | c2 B3/2 A/ f2 d2 | c4 c2 B2 | A2 A4 F2 | =E2 F4 z2 | %7
w: Bre- de|Sejl o- ver Nord- sjø|går; højt på|Skan- sen i Morg- nen|står Er- ling|Skjalg- son fra|So- le,|
 z4 z2!p! c2- | c7/2!<(! c/ c2 c2!<)! |!>(! c6 d2!>)! | .=A2 .B2 z2!pp! !>!B2- | %11
w: spej-|* der o- ver|hav mod|Dan- mark: "Kom-|
 B3/2 B/ B B!<(! B2 B2!<)! |!p!!>(! G3/2 c/!>)! !fermata!c2 ||!mf! c3 B | A2 G3/2 F/ G2 C2 | %15
w: * mer ik- ke O- laf|Tryg- va- son?"|Seks og|fem- ti de Dra- ger|
 F4 A2!<(! A B | c2!<)! z!f! A f2 d2 | c2 c4!>(! B3/2 B/!>)! | A2!mf! z2!<(! !>!F4!<)! | %19
w: lå, Sej- le- ne|faldt, mod Dan- mark|så Sol- brænd- te|Mænd, da|
 !>!G2 !>!G2 z4 | z!mf! d c =B c3/2 _B/ G =E | !>!F F!<(! B3/2 B/ B!<)! B B B | %22
w: steg det:|"Hvor bli- ver Or- men, Or- men|Lan- ge? Kom- mer ik- ke O- laf|
!f! d3/2 c/ !fermata!c2 ||!mf! c3 B | A2 G3/2 F/ G2 C2 | F4 A3!<(! B | c2!<)! B3/2 A/!>(! f2 d2 | %27
w: Tryg- va- son?"|Men da|Sol i det an- det|Gry steg af|Hav u- den Mast mod|
 c2!>)! z2!<(! !>!c2 !>!c !>!B!<)! | !>!A2 !>!=A2 !>!B2 !>!=B2 |!>(! !>!c2 !>!G!>)! z z2 z2 | %30
w: Sky, Blev det som|Storm som Storm at|hø- re:|
 z2 z!f! A G F!<(! =E F!<)! | !>!d !>!d!mf! d6- | d2 d6- | d2 z2!ff! !>!=e2 !>!f2 | %34
w: "Hvor bli- ver Or- men|Lan- ge? Hvor?|_ Hvor?|_ Kom- mer|
 !>!d2 !>!d2 !>!c2 !>!=B2 | !>!c3/2 =e/ e2 ||!pp! c3 B | A2 G3/2 F/ G2 C2 | F4 .A2 .B2 | %39
w: ik- ke O- laf|Tryg- va- son?"|Stil- le,|stil- le i sam- me|Stund Al- le|
 .c2 z2 z2 E3/2 E/ |!<(! E4 =E4!<)! |!>(! F4!>)! !>!A4- | A2!<(! A A!<)! !>!A2!>(! A2!>)! | %43
w: stod; ti fra|Ha- vets|Bund skvul-|* ped som Suk om|
 (!>!A2 G2) G2 z2 | z2!p! !>!F2-!>(! F3/2 =E/!>)! F2 |!>(! =E2 F2!>)!!>(! E2 F2!>)! | %46
w: Flå- * den:|"Ta- * gen er|Or- men Lan- ge,|
 z2!p! !>!F2-!>(! F3/2 =E/!>)! F2 | =E2 F2!p!!<(! F4!<)! | %48
w: Fal- * den er|O- laf Tryg-|
 !fermata!F3/2!>(! =E/!>)!!pp! !fermata!E2 || c3 B | A2 G3/2 F/ G2 C2 | F4 A3!<(! B | %52
w: * va- son."|Si- den|ef- ter i hun- dred|År nor- ske|
 c2!<)! B3/2 A/!>(! f2 d2!>)! | c4 !>!A4- | A2!<(! A A!<)! A2!>(! A2!>)! | (!>!A2 G2) G2 z2 | %56
w: Ski- be til Føl- ge|får, helst|_ dog i Må- ne-|næt- * ter|
 z2!pp! !>!F2-!>(! F3/2 =E/!>)! F2 |!>(! =E2!>)! F2!>(! E2!>)! F2 | %58
w: "Ta- * gen er|Or- men Lan- ge,|
 z2!pp! !>!F2-!>(! F3/2 =E/!>)! F2 | =E2 F2!<(! (A4!<)! |!p!!>(! G4-)!>)! G7/2 A/ | !fermata!A4 |] %62
w: Fal- * den er|O- laf Tryg-|* * va-|son."|
V:3
!f! C3 B, | A,2 G,3/2 F,/ G,2 C,2 | F,4 A,3 B, | C2 B,3/2 A,/ D2 B,2 | A,4 =E,2 G,2 | F,2 F,4 D,2 | %6
w: Bre- de|Sejl o- ver Nord- sjø|går; højt på|Skan- sen i Morg- nen|står Er- ling|Skjalg- son fra|
 C,2 F,4 z2 | z2!p! A,6- | A,7/2!<(! A,/ A,2 A,2!<)! |!>(! =A,6 B,2!>)! | .F,2 .F,2 z4 | %11
w: So- le,|spej-|* der o- ver|hav mod|Dan- mark:|
!pp! !>!_G,3/2 F,/ =E, F,!<(! F,2 F,2!<)! |!p!!>(! =E,3/2 G,/!>)! !fermata!G,2 ||!mf! C3 B, | %14
w: "Kom- mer ik- ke O- laf|Tryg- va- son?"|Seks og|
 A,2 G,3/2 F,/ G,2 C,2 | F,4 F,2!<(! F, G, | A,2!<)! z!f! F, D2 B,2 | A,2 =E,4!>(! G,3/2 G,/!>)! | %18
w: fem- ti de Dra- ger|lå, Sej- le- ne|faldt, mod Dan- mark|så Sol- brænd- te|
 F,2!mf! z2!<(! !>!F,4!<)! | !>!F,2 !>!=E,2 z!mf! A, G, A, | B,3/2 A,/ G, F, G,3/2 F,/ =E, G, | %21
w: Mænd, da|steg det: "Hvor bli- ver|Or- men Lan- ge? Or- men, Or- men|
 !>!F, F,!<(! F,3/2 F,/ _G,!<)! F, =E, F, |!f! B,3/2 G,/ !fermata!G,2 ||!mf! C3 B, | %24
w: Lan- ge? Kom- mer ik- ke O- laf|Tryg- va- son?"|Men da|
 A,2 G,3/2 F,/ G,2 C,2 | F,4 A,3!<(! B, | C2!<)! B,3/2 A,/!>(! D2 B,2 | %27
w: Sol i det an- det|Gry steg af|Hav u- den Mast mod|
 A,2!>)! z2!<(! !>!C2 !>!A, !>!G,!<)! | !>!F,6 !>!F,2 | %29
w: Sky, Blev det som|Storm at|
!>(! !>!G,2 !>!=E,!>)! z z!f! G, F,!<(! =E, | A,!<)! C D C z4 | z!mf! D, F, B, B,2 B,2 | %32
w: hø- re: "Hvor bli- ver|Or- men Lan- ge?|Hvor bli- ver Or- men|
 B, B, B,6- | B,2!ff! !>!D4 !>!C2 | !>!B,2 !>!A,2 !>!A,2 !>!F,2 | !>!G,3/2 C/ C2 ||!pp! C3 B, | %37
w: Lan- ge? Hvor?|_ Kom- mer|ik- ke O- laf|Tryg- va- son?"|Stil- le,|
 A,2 G,3/2 F,/ G,2 C,2 | F,4 .F,2 .D,2 | .E,2 z2 z2 E,3/2 E,/ |!<(! E,4 =E,4!<)! |!>(! F,4!>)! z4 | %42
w: stil- le i sam- me|Stund Al- le|stod; ti fra|Ha- vets|Bund|
 !>!F,2!<(! F, F,!<)! !>!F,2!>(! F,2!>)! | F,4 =E,2 z2 | z2!p! !>!C,2-!>(! C,3/2 C,/!>)! C,2 | %45
w: skvul- ped som Suk om|Flå- den:|"Ta- * gen er|
!>(! D,2 C,2!>)!!>(! D,2 C,2!>)! | z2!p! !>!C,2-!>(! C,3/2 C,/!>)! C,2 | D,2 C,2!p!!<(! =D,4!<)! | %48
w: Or- men Lan- ge,|Fal- * den er|O- laf Tryg-|
 !fermata!=D,3/2!>(! C,/!>)!!pp! !fermata!C,2 || C3 B, | A,2 G,3/2 F,/ G,2 C,2 | F,4 A,3!<(! B, | %52
w: * va- son."|Si- den|ef- ter i hun- dred|År nor- ske|
 C2!<)! B,3/2 A,/!>(! D2 B,2!>)! | A,4 z4 | !>!F,2!<(! F, F,!<)! F,2!>(! F,2!>)! | F,4 =E,2 z2 | %56
w: Ski- be til Føl- ge|får,|helst dog i Må- ne-|næt- ter|
 z2!pp! !>!C,2-!>(! C,3/2 C,/!>)! C,2 |!>(! D,2!>)! C,2!>(! D,2!>)! C,2 | %58
w: "Ta- * gen er|Or- men Lan- ge,|
 z2!pp! !>!C,2-!>(! C,3/2 C,/!>)! C,2 | D,2 C,2!<(! F,4-!<)! |!p!!>(! (F,4!>)! =E,7/2) F,/ | %61
w: Fal- * den er|O- laf Tryg-|* * va-|
 !fermata!F,4 |] %62
w: son."|
V:4
!f! C3 B, | A,2 G,3/2 F,/ G,2 C,2 | F,4 A,3 B, | C2 B,3/2 A,/ D2 B,2 | A,4 =E,2 G,2 | %5
w: Bre- de|Sejl o- ver Nord- sjø|går; højt på|Skan- sen i Morg- nen|står Er- ling|
 F,2 D,4 B,,2 | C,2 F,,4!p! F,2- | F,8- | F,7/2!<(! F,/ F,2 F,2!<)! |!>(! E,6 D,2!>)! | %10
w: Skjalg- son fra|So- le, spej-||* der o- ver|hav mod|
 .C,2 .B,,2 z4 |!pp! !>!_G,3/2 F,/ =E, F,!<(! D,2 B,,2!<)! |!p!!>(! C,3/2 C,/!>)! !fermata!C,2 || %13
w: Dan- mark:|"Kom- mer ik- ke O- laf|Tryg- va- son?"|
!mf! C3 B, | A,2 G,3/2 F,/ G,2 C,2 | F,4 F,2!<(! F, G, | A,2!<)! z!f! F, D2 B,2 | %17
w: Seks og|fem- ti de Dra- ger|lå, Sej- le- ne|faldt, mod Dan- mark|
 A,2 =E,4!>(! G,3/2 G,/!>)! | F,2!mf! z2!<(! !>!D,4!<)! | !>!B,,2 !>!C,2 z!mf! F, =E, F, | %20
w: så Sol- brænd- te|Mænd, da|steg det: "Hvor bli- ver|
 G,3/2 F,/ =E, D, C,3/2 C,/ C, C, | !>!D, D,!<(! B,,3/2 B,,/ B,,!<)! B,, B,, B,, | %22
w: Or- men Lan- ge? Or- men, Or- men|Lan- ge? Kom- mer ik- ke O- laf|
!f! G,,3/2 C,/ !fermata!C,2 ||!mf! C3 B, | A,2 G,3/2 F,/ G,2 C,2 | F,4 A,3!<(! B, | %26
w: Tryg- va- son?"|Men da|Sol i det an- det|Gry steg af|
 C2!<)! B,3/2 A,/!>(! D2 B,2 | A,2!>)! z2!<(! !>!C,2 !>!C, !>!C,!<)! | !>!D,6 !>!D,2 | %29
w: Hav u- den Mast mod|Sky, Blev det som|Storm at|
!>(! !>!C,2 !>!C,!>)!!f! G, F, =E, D,!<(! C, | F,!<)! A, z2 z4 | %31
w: hø- re: "Hvor bli- ver Or- men|Lan- ge?|
 z!mf! B,, D, F, G,!<(! F, G, F,!<)! |!>(! =E, E,!>)! z F, G,!<(! F, G, F,!<)! | %33
w: Hvor bli- ver Or- men, Or- men|Lan- ge? Hvor bli- ver Or- men|
 !>!=E, !>!E, z2!ff! !>!G,2 !>!F,2 | !>!B,,2 !>!=B,,2 !>!C,2 !>!D,2 | !>!C,3/2 C/ C2 ||!pp! C3 B, | %37
w: Lan- ge? Kom- mer|ik- ke O- laf|Tryg- va- son?"|Stil- le,|
 A,2 G,3/2 F,/ G,2 C,2 | F,4 .D,2 .B,,2 | .A,,2 z2 z2 E,3/2 E,/ |!<(! E,4 =E,4!<)! | %41
w: stil- le i sam- me|Stund Al- le|stod; ti fra|Ha- vets|
!>(! F,4!>)! z4 | !>!D,2!<(! D, C,!<)! !>!B,,2!>(! C,2!>)! | D,4 C,2 z2 | %44
w: Bund|skvul- ped som Suk om|Flå- den:|
!mf! !>!F,,4-!>(! F,,3/2 G,,/!>)! A,,2 |!>(! B,,2 A,,2!>)!!>(! B,,2 A,,2!>)! | %46
w: "Ta- * gen er|Or- men Lan- ge,|
!mf! !>!F,,4-!>(! F,,3/2 G,,/!>)! A,,2 | B,,2 A,,2!p!!<(! =B,,4!<)! | %48
w: Fal- * den er|O- laf Tryg-|
 !fermata!=B,,3/2!>(! C,/!>)!!pp! !fermata!C,2 || C3 B, | A,2 G,3/2 F,/ G,2 C,2 | F,4 A,3!<(! B, | %52
w: * va- son."|Si- den|ef- ter i hun- dred|År nor- ske|
 C2!<)! B,3/2 A,/!>(! D2 B,2!>)! | A,4 z4 | !>!F,E,!<(! D, C,!<)! B,,2!>(! C,2!>)! | D,4 C,2 z2 | %56
w: Ski- be til Føl- ge|får,|helst _ dog i Må- ne-|næt- ter|
!p! !>!F,,4-!>(! F,,3/2 G,,/!>)! A,,2 |!>(! B,,2!>)! A,,2!>(! B,,2!>)! A,,2 | %58
w: "Ta- * gen er|Or- men Lan- ge,|
!p! !>!F,,4-!>(! F,,3/2 G,,/!>)! A,,2 | B,,2 A,,2!pp!!<(! C,4-!<)! |!p!!>(! C,4-!>)! C,7/2 F,,/ | %61
w: Fal- * den er|O- laf Tryg-|* * va-|
 !fermata!F,,4 |] %62
w: son."|

